build/category/IdeaSolid.svg

<svg xmlns="http://www.w3.org/2000/svg" fill="none" viewBox="0 0 24 24" focusable="false"><path d="M0 0H24V24H0z"/><path fill="#74767B" fill-rule="evenodd" d="M16.0143 17.9893L16.0143 14.9752C17.6217 13.7593 18.6602 11.831 18.6602 9.6602C18.6602 5.98187 15.6784 3 12 3C8.32172 3 5.33984 5.98187 5.33984 9.6602C5.33984 11.831 6.37843 13.7593 7.98581 14.9752L7.98581 17.9893C7.98581 19.6521 9.33374 21 10.9965 21L13.0036 21C14.6664 21 16.0143 19.6521 16.0143 17.9893ZM8.80633 13.96L8.77288 13.9347C7.47743 12.9548 6.64447 11.405 6.64447 9.6602C6.64447 6.7024 9.04224 4.30463 12 4.30463C14.9579 4.30463 17.3556 6.7024 17.3556 9.6602C17.3556 11.405 16.5227 12.9548 15.2272 13.9347L15.1938 13.96L14.063 13.96L14.063 10.2457L14.8313 10.2457C15.1916 10.2457 15.4836 9.95365 15.4836 9.59339C15.4836 9.23313 15.1916 8.94108 14.8313 8.94108L9.21335 8.94108C8.85309 8.94108 8.56104 9.23313 8.56104 9.59339C8.56104 9.95365 8.85309 10.2457 9.21335 10.2457L9.9816 10.2457L9.9816 13.96L8.80633 13.96ZM11.2862 13.96L12.7584 13.96L12.7584 10.2457L11.2862 10.2457L11.2862 13.96Z"/></svg>

<svg xmlns="http://www.w3.org/2000/svg" fill="none" viewBox="0 0 24 24" focusable="false"><path fill="#74767B" fill-rule="evenodd" d="M16.01 17.98v-3.01a6.64 6.64 0 0 0 2.65-5.31C18.66 5.98 15.67 3 12 3 8.32 3 5.33 5.98 5.33 9.66c0 2.17 1.04 4.09 2.65 5.31v3.01c0 1.67 1.35 3.02 3.01 3.02H13c1.66 0 3.01-1.35 3.01-3.02M8.8 13.96l-.03-.03a5.33 5.33 0 0 1-2.13-4.27C6.64 6.7 9.04 4.3 12 4.3c2.95 0 5.35 2.4 5.35 5.36 0 1.74-.83 3.29-2.13 4.27l-.03.03h-1.13v-3.72h.77c.36 0 .65-.29.65-.65s-.29-.65-.65-.65H9.21c-.36 0-.65.29-.65.65s.29.65.65.65h.77v3.72zm2.48 0h1.47v-3.72h-1.47z"/></svg>
